X:1
T:Please Say You Will
T:Please Say You Will
T:Scott Joplin 
T:composer 
T:OpenScore (CC0).
T:OpenScore (CC0).
T:OpenScore (CC0).
T:OpenScore (CC0).
C:Scott Joplin
Z:Scott Joplin
Z:OpenScore (CC0).
%%score 1 { ( 2 4 ) | 3 }
L:1/8
M:3/4
K:Bb
V:1 treble nm="Voice"
V:2 treble nm="Piano"
V:4 treble 
V:3 bass 
V:1
 z6 | z6 | z6 | z6 | z6 | z6 | z6 | z6 || D6 | E4 =E2 | F6 | B6 | G6 | e4 G2 | F6- | F2 z2 z2 | %16
w: ||||||||Closed|in the|par-|lor|we|are a-|lone|_|
w: ||||||||Oh|Ma- mie|loved|one|don't|treat me|so|_|
w: ||||||||Now|we must|part|love|I'll|ask a-|gain|_|
 D6 | E4 =E2 | F6 | B6 | G6 | d4 _d2 | c6- | c2 z2 z2 | D6 | E4 =E2 | F6 | B6 | G6 | e4 G2 | F6- | %31
w: Hap-|py to|be|with|one|that I|love|_|I'll|ask you|kind-|ly|oh|Ma- mie|dove|
w: You|have for-|sak-|en|where|will I|go,|_|Bowed|on my|knees|I|pray|once a-|gain|
w: Don't|let this|plead-|ing|be|all in|vain|_|You|know I|love|you|why|not for-|give|
 F2 z2 d2 | e6 | G4 _G2 | F6 | B4 d2 | c6 | G4 A2 | B6- | B2 z2 z2 | B6 | A4 G2 | ^F6 | d6 | c6 | %45
w: _ Do|speak|just a|few|words to|bind|us in|love|_|I|will con-|fess|that|I|
w: _ For-|give|me my|loved|one for|I|am to|blame|_|Once|you were|kind|and|kissed|
w: _ For|my|heart is|brok-|en oh|please|say you|will|_|Let|us a-|gree|love|o-|
 B4 A2 | G6- | G2 z2 z2 | A6 | G4 =F2 | =E6 | c6 | B6 | A4 G2 | F6- | F2 z2 z2 | D6 | E4 =E2 | F6 | %59
w: have been|false|_|The|oth- er|girl|was|real-|ly the|cause|_|She|is a|flirt|
w: me so|sweet|_|The|oth- er|girl|has|fooled|me com-|plete|_|Now|I will|live|
w: pen your|heart|_|Don't|let that|flirt|now|keep|us a-|part|_|I|am so|hum-|
 B6 | G6 | e4 G2 | F6- | F2 z2 d2 | e6 | G6 | F4 B2 | d6 | c6 | G4 A2 | B6- | B2 z2 z2 || %72
w: too,|and|nev- er|still|_ I|don't|love|none but|you|please|say you|will|_|
w: true|why|not for-|give|_ I|don't|love|none but|you|please|say you|will|_|
w: ble|and|plead- ing|still|_ I|don't|love|none but|you|please|say you|will|_|
"^CHORUS" d4 e2 | f6 | B4 c2 | d6 | G4 G2 | e4 G2 | F6- | F2 z2 z2 | d4 e2 | f6 | B4 c2 | d6 | %84
w: Must I|plead|must I|kneel|and you|not for-|give|_|Has your|heart|love been|sealed|
w: ||||||||||||
w: ||||||||||||
 G4 G2 | d4 d2 | c6- | c2 z2 z2 | d4 e2 | f6 | B4 c2 | d6 | G4 G2 | e4 G2 | F6- | F2 z2 d2 | e6 | %97
w: do you|love me|still|_|You have|al-|ways been|true|now why|not for-|give|_ I|don't|
w: |||||||||||||
w: |||||||||||||
 G6 | F4 B2 | d6 | c6 | G4 A2 | B6- | B2 z2 z2 :| %104
w: love|none but|you|please|say you|will|_|
w: |||||||
w: |||||||
V:2
 d6 | e4 =e2 | f6 | !fermata!b4 =e2 | (f^fg=fdf) | (ecAFec) | B2 [DFB]2 [DFB]2 | %7
 z2 [DFB]2 [DFB]2 || z2 [F,B,D]2 [F,B,D]2 | z2 [F,A,E]2 [G,B,=E]2 | F6 | B6 | G6 | G6 | F6 | F6 | %16
 z2 [F,B,D]2 [F,B,D]2 | z2 [F,A,E]2 [G,B,=E]2 | F6 | B6 | B6 | B6 | A6 | [FAf]2 [GB=e]2 [FAc_e]2 | %24
 z2 [F,B,D]2 [F,B,D]2 | z2 [F,A,_E]2 [G,B,=E]2 | F6 | B6 | G6 | G6 | F6 | F6 | B6 | B6 | F6 | B6 | %36
 c6 | z2 [C_EA]2 [CEA]2 | z2 [F,B,D]2 [F,B,D]2 | z2 [F,B,D]2 [F,B,D]2 | B6 | A4 G2 | ^F6 | d6 | %44
 c6 | B4 A2 | G3 GBd | g6 | A6 | G4 =F2 | =E6 | c6 | B6 | A4 G2 | F3 FAc | f6 | %56
 z2 [F,B,D]2 [F,B,D]2 | z2 [F,A,E]2 [G,B,=E]2 | F6 | B6 | G6 | G6 | F6 | F6 | B6 | B6 | F6 | %67
 [Dd]6 | c6 | z2 [C_EA]2 [CEA]2 | [F,B,D]2 [F,B,D]2 [F,B,D]2 | [F,B,D]2 [B,DF]2 [DFB]2 || b4 c'2 | %73
 d'6 | d4 e2 | f6 | e4 e2 | g4 e2 | dBFDFB | d6 | b4 c'2 | d'6 | d4 A2 | B6 | =e4 e2 | b4 b2 | %86
 aAcfac' | f'6 | b4 c'2 | d'6 | d4 e2 | f6 | e4 e2 | g4 e2 | dBFDFB | d4 _a2 | g6 | e6 | d4 d2 | %99
 f6 | c6 | z2 [C_EA]2 [CEA]2 | [DFB]DFBdf | [Bdfb]2 z2 z2 :| %104
V:3
 B,,2 [F,B,D]2 [F,B,D]2 | C,2 [F,A,E]2 [G,B,^C]2 | D,2 [F,_A,B,D]2 [F,A,B,D]2 | %3
 !fermata![E,G,B,E]4 [=E,G,B,^C]2 | D,2 [F,B,D]2 [F,B,D]2 | [F,,F,]2 [F,A,CE]2 [F,A,CE]2 | %6
 [B,,B,]2 z2 z2 | [F,,F,]2 z2 z2 || [B,,,B,,]6 | [C,,C,]4 [^C,,^C,]2 | [D,,D,]6 | [D,,D,]6 | %12
 [E,,E,]6 | [E,,E,]6 | [D,,D,]6 | [=C,,=C,]6 | [B,,,B,,]6 | [C,,C,]4 [^C,,^C,]2 | [D,,D,]6 | %19
 [G,,G,]6 | [C,,C,]6 | [G,,G,]6 | [F,,F,]6 | (F,,2 G,,2 A,,2) | [B,,,B,,]6 | [C,,C,]4 [^C,,^C,]2 | %26
 [D,,D,]6 | [D,,D,]6 | [E,,E,]6 | [E,,E,]6 | [D,,D,]6 | [D,,D,]4 [F,,F,]2 | [G,,G,]6 | [E,,E,]6 | %34
 [D,,D,]6 | [D,,D,]4 [B,,,B,,]2 | [G,,G,]6 | [F,,F,]6 | B,,2 F,,2 D,,2 | B,,,2 z2 z2 | %40
 [G,,G,]2 [G,B,D]2 [G,B,D]2 | [D,,D,]2 [D,^F,A,C]2 [D,G,B,]2 | [D,,D,]2 [D,^F,A,C]2 [D,F,A,C]2 | %43
 [^F,,^F,]2 [D,A,C]2 [D,A,C]2 | [D,,D,]2 [D,^F,A,C]2 [D,F,A,C]2 | [D,,D,]2 [D,G,B,]2 [D,^F,A,C]2 | %46
 [G,,G,]2 [G,B,D]2 [G,B,D]2 | [G,,G,]2 [G,B,D]2 [G,B,D]2 | [=F,,=F,]2 [A,CF]2 [A,CF]2 | %49
 [C,,C,]2 [G,B,C=E]2 [F,A,C]2 | [C,,C,]2 [G,B,C]2 [G,B,C]2 | [=E,,=E,]2 [G,B,C=E]2 [G,B,CE]2 | %52
 [C,,C,]2 [B,C=E]2 [B,CE]2 | [C,,C,]2 [A,CF]2 [B,C=E]2 | [F,,F,]2 [F,A,C]2 [F,A,C]2 | %55
 [F,,F,]2 [F,A,_E]2 [F,A,E]2 | [B,,,B,,]6 | [C,,C,]4 [^C,,^C,]2 | [D,,D,]6 | [D,,D,]6 | [E,,E,]6 | %61
 [E,,E,]6 | [D,,D,]6 | [D,,D,]4 [F,,F,]2 | [G,,G,]6 | [E,,E,]6 | [D,,D,]6 | [B,,,B,,]6 | [G,,G,]6 | %69
 [F,,F,]6 | [B,,,B,,]2 F,,2 D,,2 | [B,,,B,,]2 z2 z2 || [B,,B,]2 [F,B,D]2 [F,B,D]2 | %73
 [B,,B,]2 [F,B,D]2 [F,B,D]2 | [B,,B,]2 [F,B,D]2 [F,B,D]2 | [B,,B,]2 [F,_A,B,D]2 [F,A,B,D]2 | %76
 E,2 [G,B,E]2 [G,B,E]2 | E,2 [G,B,E]2 [G,B,E]2 | [B,,B,]2 [F,B,]2 [F,B,]2 | %79
 [F,,F,]2 [F,B,D]2 [F,B,D]2 | [B,,B,]2 [F,B,D]2 [F,B,D]2 | [B,,B,]2 [F,B,D]2 [F,B,D]2 | %82
 [B,,B,]2 [F,B,D]2 [F,B,D]2 | [G,,G,]2 [G,B,D]2 [G,B,D]2 | [C,,C,]2 [G,B,C=E]2 [G,B,CE]2 | %85
 [C,,C,]2 [G,B,C=E]2 [G,B,CE]2 | [F,,F,]2 [A,CF]2 [A,CF]2 | [F,,F,]2 [F,A,_E]2 [F,A,E]2 | %88
 [B,,B,]2 [F,B,D]2 [F,B,D]2 | [B,,B,]2 [F,B,D]2 [F,B,D]2 | [B,,B,]2 [F,B,D]2 [F,B,D]2 | %91
 [B,,B,]2 [F,_A,B,D]2 [F,A,B,D]2 | E,2 [G,B,E]2 [G,B,E]2 | E,2 [G,B,E]2 [G,B,E]2 | %94
 [B,,B,]2 [F,B,]2 [F,B,]2 | [F,,F,]2 [F,_A,B,D]2 [F,A,B,D]2 | E,2 [G,B,E]2 [G,B,E]2 | %97
 E,2 [G,B,E]2 [G,B,E]2 | [B,,B,]2 [F,B,D]2 [F,B,D]2 | [B,,B,]2 [F,B,D]2 [F,B,D]2 | [G,,G,]6 | %101
 [F,,F,]6 | [B,,,B,,]2 D,,2 F,,2 | [B,,,B,,]2 z2 z2 :| %104
V:4
 x6 | x6 | x6 | B6 | x6 | x6 | x6 | x6 || x6 | x6 | z2 [F,B,D]2 [F,B,D]2 | z2 [DF_A]2 [DFA]2 | %12
 z2 [B,E]2 [B,E]2 | z2 [B,E]2 [B,E]2 | z2 [F,B,D]2 [F,B,D]2 | z2 [F,A,E]2 [F,A,E]2 | x6 | x6 | %18
 z2 [F,B,D]2 [F,B,D]2 | z2 [DG]2 [DG]2 | z2 [C=E]2 [CE]2 | z2 [C=E]2 [CEB]2 | z2 [CF]2 [CF]2 | x6 | %24
 x6 | x6 | z2 [F,B,D]2 [F,B,D]2 | z2 [DF_A]2 [DFA]2 | z2 [B,E]2 [B,E]2 | z2 [B,E]2 [B,E]2 | %30
 z2 [F,B,D]2 [F,B,D]2 | z2 [F,B,D]2 [B,D_AB]2 | z2 [B,EG]2 [B,EG]2 | z2 [B,EG]2 [B,E_G]2 | %34
 z2 [F,B,D]2 [F,B,D]2 | z2 [DF]2 [DFd]2 | z2 [=EGB]2 [EGB]2 | x6 | x6 | x6 | x6 | x6 | x6 | x6 | %44
 x6 | x6 | x6 | x6 | x6 | x6 | x6 | x6 | x6 | x6 | x6 | x6 | x6 | x6 | z2 [F,B,D]2 [F,B,D]2 | %59
 z2 [DF_A]2 [DFA]2 | z2 [B,E]2 [B,E]2 | z2 [B,E]2 [B,E]2 | z2 [F,B,D]2 [F,B,D]2 | %63
 z2 [F,B,D]2 [B,D_AB]2 | z2 [B,EG]2 [B,EG]2 | z2 [B,EG]2 [B,E_G]2 | z2 [F,B,D]2 [B,DFB]2 | %67
 z2 [FB]2 [FB]2 | z2 [=EGB]2 [EGB]2 | x6 | x6 | x6 || x6 | x6 | x6 | x6 | x6 | x6 | x6 | x6 | x6 | %81
 x6 | x6 | x6 | x6 | x6 | x6 | x6 | x6 | x6 | x6 | x6 | x6 | x6 | x6 | x6 | x6 | x6 | x6 | x6 | %100
 z2 [=EGB]2 [EGB]2 | x6 | x6 | x6 :| %104

